X: 1
T:Mhari's Wedding
M:C|
L:1/8
Q:80
C:arr. Russ Spaulding
S:March
K:HP
{g}GA{GAG}A3/2B/2|
{Gdc}d3/2e/2{g}f2|
{g}ed{gBd}Bd|  !
{g}fef2|
{g}GA{GAG}A3/2B/2|
{Gdc}d3/2e/2{g}f2|  !
{g}ed{gBd}BG|
{g}A2{GAG}A2:|
{g}fa{g}a2|  !
{GdG}a3/2g/2{fg}f2|
{g}ed{gBd}Bd|
{g}fef2|1  !
{g}fa{g}a2|
{GdG}a3/2g/2{fg}f2|
{g}ed{gBd}BG|  !
{g}A2{GAG}A2:|
